src/assets/icons/days,fancy,saturday.svg

<svg width="48" height="48" viewBox="0 0 48 48" fill="none" xmlns="http://www.w3.org/2000/svg">
<rect opacity="0.2" x="4" y="6" width="40" height="40" rx="4" fill="black"/>
<path d="M20.1616 26.5653H23.6985C23.6474 23.4545 21.0906 21.3068 17.2042 21.3068C13.3775 21.3068 10.5735 23.4205 10.5906 26.5909C10.582 29.1648 12.3974 30.6392 15.3462 31.3466L17.2468 31.8239C19.1474 32.2841 20.2042 32.8295 20.2127 34.0057C20.2042 35.2841 18.994 36.1534 17.119 36.1534C15.2013 36.1534 13.8207 35.267 13.7013 33.5199H10.1303C10.2241 37.2955 12.9258 39.2472 17.1616 39.2472C21.4229 39.2472 23.9286 37.2102 23.9371 34.0142C23.9286 31.108 21.7383 29.5653 18.7042 28.8835L17.136 28.5085C15.619 28.1591 14.3491 27.5966 14.3746 26.3438C14.3746 25.2188 15.3718 24.392 17.1786 24.392C18.9428 24.392 20.0252 25.1932 20.1616 26.5653ZM30.0842 39.2472C32.0188 39.2472 33.2717 38.4034 33.9109 37.1847H34.0131V39H37.4563V30.1705C37.4563 27.0511 34.8143 25.7386 31.8995 25.7386C28.7631 25.7386 26.7006 27.2386 26.1978 29.625L29.5558 29.8977C29.8029 29.0284 30.5785 28.3892 31.8825 28.3892C33.1183 28.3892 33.8256 29.0114 33.8256 30.0852V30.1364C33.8256 30.9801 32.9308 31.0909 30.6552 31.3125C28.0643 31.5511 25.7376 32.4205 25.7376 35.3438C25.7376 37.9347 27.587 39.2472 30.0842 39.2472ZM31.1239 36.7415C30.0075 36.7415 29.2063 36.2216 29.2063 35.2244C29.2063 34.2017 30.0501 33.6989 31.3285 33.5199C32.1211 33.4091 33.4165 33.2216 33.8512 32.9318V34.321C33.8512 35.6932 32.7177 36.7415 31.1239 36.7415Z" fill="black"/>
<g opacity="0.4">
<path d="M10 4C10 2.89543 10.8954 2 12 2C13.1046 2 14 2.89543 14 4V8C14 9.10457 13.1046 10 12 10C10.8954 10 10 9.10457 10 8V4Z" fill="black"/>
<path d="M34 4C34 2.89543 34.8954 2 36 2C37.1046 2 38 2.89543 38 4V8C38 9.10457 37.1046 10 36 10C34.8954 10 34 9.10457 34 8V4Z" fill="black"/>
</g>
<path fill-rule="evenodd" clip-rule="evenodd" d="M10 6.00869C7.52043 6.04456 6.11466 6.22849 5.17157 7.17157C4 8.34315 4 10.2288 4 14V16H44V14C44 10.2288 44 8.34315 42.8284 7.17157C41.8853 6.22849 40.4796 6.04456 38 6.00869V8C38 9.10457 37.1046 10 36 10C34.8954 10 34 9.10457 34 8V6H14V8C14 9.10457 13.1046 10 12 10C10.8954 10 10 9.10457 10 8V6.00869Z" fill="black"/>
</svg>

<svg xmlns="http://www.w3.org/2000/svg" width="48" height="48" fill="none" viewBox="0 0 48 48">
  <rect width="40" height="40" x="4" y="6" fill="#000" opacity=".2" rx="4"/>
  <path fill="#000" d="M20.162 26.565h3.537c-.052-3.11-2.608-5.258-6.495-5.258-3.827 0-6.63 2.114-6.613 5.284-.009 2.574 1.806 4.048 4.755 4.756l1.9.477c1.901.46 2.958 1.006 2.967 2.182-.009 1.278-1.219 2.147-3.094 2.147-1.918 0-3.298-.886-3.418-2.633h-3.57c.093 3.775 2.795 5.727 7.03 5.727 4.262 0 6.768-2.037 6.776-5.233-.008-2.906-2.199-4.449-5.233-5.13l-1.568-.375c-1.517-.35-2.787-.912-2.761-2.165 0-1.125.997-1.952 2.804-1.952 1.764 0 2.846.801 2.983 2.173zm9.922 12.682c1.935 0 3.188-.844 3.827-2.062h.102V39h3.443v-8.83c0-3.119-2.642-4.431-5.557-4.431-3.136 0-5.198 1.5-5.701 3.886l3.358.273c.247-.87 1.022-1.509 2.326-1.509 1.236 0 1.944.622 1.944 1.696v.051c0 .844-.895.955-3.17 1.177-2.592.238-4.918 1.107-4.918 4.03 0 2.592 1.849 3.904 4.346 3.904zm1.04-2.505c-1.116 0-1.918-.52-1.918-1.518 0-1.022.844-1.525 2.122-1.704.793-.11 2.088-.298 2.523-.588v1.389c0 1.372-1.133 2.42-2.727 2.42z"/>
  <g opacity=".4">
    <path fill="#000" d="M10 4a2 2 0 114 0v4a2 2 0 11-4 0V4zM34 4a2 2 0 114 0v4a2 2 0 11-4 0V4z"/>
  </g>
  <path fill="#000" fill-rule="evenodd" d="M10 6.009c-2.48.036-3.885.22-4.828 1.163C4 8.343 4 10.229 4 14v2h40v-2c0-3.771 0-5.657-1.172-6.828-.943-.944-2.348-1.127-4.828-1.163V8a2 2 0 11-4 0V6H14v2a2 2 0 11-4 0V6.009z" clip-rule="evenodd"/>
</svg>
